X: 1
T: The Reel With The Birl
R: reel
M: 4/4
L: 1/8
K: Edor
|:E2 BE dEBE|(3EEE BE AGFD|(3EEE BE dEBc|1 dcdB AGFD:|2 dcdB A4||
B3 d e3 g|fd d2 d^d ef|g4 g2 fe|fa a2 afed| 
fb b2 bafe|fa a2 afed|B3 A BAFA|dcdB AGFD||




